; generated by Slic3r 1.3.0 on 2022-05-07 at 17:53:03

; external perimeters extrusion width = 0.67mm (0.54mm^3/s)
; perimeters extrusion width = 0.64mm (0.51mm^3/s)
; infill extrusion width = 0.64mm (0.77mm^3/s)
; solid infill extrusion width = 0.64mm (6.14mm^3/s)
; top infill extrusion width = 0.64mm (4.61mm^3/s)

M107
T0
G92 X0 Y0 Z0 E0  ;set coordinates to 0 
G92 E0

T0
M302 P1
; Filament gcode

G21 ; set units to millimeters
G90 ; use absolute coordinates
M82 ; use absolute distances for extrusion
G92 E0
G1 Z0.600 F150.000
G92 E0
G1 Z0.750 F150.000
G1 X1.589 Y-2.183 F150.000
G1 Z0.600 F150.000
G1 E0.500 F100
G1 F100.002
G1 X2.159 Y-2.291 E0.535
G1 X2.156 Y-2.967 E0.575
G1 X2.239 Y-3.012 E0.581
G1 X2.269 Y-3.374 E0.603
G1 X2.555 Y-3.205 E0.623
G1 X2.568 Y-3.672 E0.651
G1 X2.801 Y-3.905 E0.671
G1 X2.886 Y-4.158 E0.687
G1 X2.867 Y-4.600 E0.713
G1 X3.043 Y-4.611 E0.724
G1 X3.368 Y-4.761 E0.745
G1 X3.615 Y-4.784 E0.760
G1 X3.924 Y-4.898 E0.780
G1 X3.923 Y-4.684 E0.793
G1 X4.488 Y-4.524 E0.828
G1 X4.637 Y-4.779 E0.846
G1 X4.815 Y-4.744 E0.857
G1 X4.875 Y-4.916 E0.867
G1 X5.170 Y-4.750 E0.888
G1 X5.550 Y-4.664 E0.911
G1 X5.953 Y-4.652 E0.935
G1 X5.992 Y-4.477 E0.946
G1 X5.992 Y-4.186 E0.964
G1 X6.101 Y-4.013 E0.976
G1 X6.366 Y-3.729 E0.999
G1 X6.410 Y-3.624 E1.006
G1 X6.646 Y-3.299 E1.030
G1 X6.854 Y-2.813 E1.062
G1 X7.061 Y-2.589 E1.080
G1 X7.391 Y-2.337 E1.105
G1 X7.492 Y-1.701 E1.144
G1 X7.624 Y-1.424 E1.162
G1 X7.730 Y-1.107 E1.182
G1 X7.759 Y-0.816 E1.200
G1 X7.732 Y-0.512 E1.218
G1 X7.740 Y-0.243 E1.234
G1 X7.710 Y0.263 E1.264
G1 X7.662 Y0.308 E1.268
G1 X7.368 Y0.749 E1.300
G1 X7.076 Y1.124 E1.329
G1 X7.000 Y1.428 E1.348
G1 X6.911 Y1.408 E1.353
G1 X6.833 Y1.579 E1.364
G1 X6.669 Y1.525 E1.375
G1 X6.560 Y1.987 E1.403
G1 X6.449 Y2.254 E1.420
G1 X6.196 Y2.761 E1.454
G1 X5.909 Y2.948 E1.475
G1 X5.818 Y3.064 E1.484
G1 X5.675 Y3.151 E1.494
G1 X5.523 Y3.287 E1.506
G1 X5.296 Y3.616 E1.530
G1 X5.246 Y3.849 E1.544
G1 X5.223 Y4.344 E1.574
G1 X5.082 Y4.492 E1.586
G1 X4.996 Y4.681 E1.599
G1 X4.941 Y5.222 E1.632
G1 X4.865 Y5.364 E1.641
G1 X4.362 Y5.318 E1.672
G1 X4.287 Y6.042 E1.715
G1 X4.211 Y6.237 E1.728
G1 X3.957 Y6.187 E1.743
G1 X3.898 Y5.679 E1.774
G1 X3.859 Y5.091 E1.809
G1 X3.672 Y4.623 E1.840
G1 X3.533 Y4.065 E1.874
G1 X2.790 Y4.050 E1.919
G1 X2.603 Y4.101 E1.930
G1 X2.428 Y4.218 E1.943
G1 X2.326 Y4.350 E1.953
G1 X2.296 Y4.424 E1.958
G1 X1.937 Y4.716 E1.985
G1 X1.575 Y4.873 E2.009
G1 X1.036 Y5.215 E2.047
G1 X0.849 Y5.282 E2.059
G1 X0.109 Y5.379 E2.104
G1 X0.693 Y6.058 E2.158
G1 X0.831 Y6.471 E2.184
G1 X0.561 Y6.496 E2.200
G1 X0.334 Y6.647 E2.217
G1 X0.059 Y6.657 E2.233
G1 X-0.198 Y6.779 E2.250
G1 X-0.344 Y6.587 E2.265
G1 X-0.542 Y6.469 E2.279
G1 X-1.205 Y6.394 E2.319
G1 X-0.965 Y5.847 E2.354
G1 X-1.498 Y5.896 E2.386
G1 X-1.419 Y5.624 E2.403
G1 X-1.458 Y5.271 E2.425
G1 X-1.762 Y5.161 E2.444
G1 X-2.234 Y5.141 E2.473
G1 X-2.449 Y5.189 E2.486
G1 X-2.622 Y5.286 E2.498
G1 X-2.757 Y5.458 E2.511
G1 X-2.875 Y5.695 E2.527
G1 X-3.149 Y5.570 E2.545
G1 X-3.159 Y5.220 E2.566
G1 X-3.366 Y5.244 E2.578
G1 X-3.375 Y5.014 E2.592
G1 X-3.715 Y5.027 E2.612
G1 X-3.735 Y4.462 E2.646
G1 X-4.056 Y4.462 E2.666
G1 X-4.056 Y3.623 E2.716
G1 X-4.605 Y4.060 E2.758
G1 X-4.623 Y3.753 E2.777
G1 X-4.671 Y3.569 E2.788
G1 X-4.765 Y3.364 E2.801
G1 X-5.046 Y3.016 E2.828
G1 X-5.401 Y2.774 E2.854
G1 X-5.779 Y2.683 E2.877
G1 X-6.037 Y2.656 E2.893
G1 X-6.220 Y2.461 E2.909
G1 X-6.387 Y2.363 E2.921
G1 X-6.476 Y2.338 E2.926
G1 X-6.741 Y2.156 E2.945
G1 X-6.952 Y2.110 E2.958
G1 X-7.093 Y2.110 E2.967
G1 X-7.200 Y2.064 E2.974
G1 X-7.357 Y1.930 E2.986
G1 X-7.618 Y1.655 E3.009
G1 X-7.767 Y1.201 E3.038
G1 X-7.882 Y1.197 E3.045
G1 X-7.907 Y0.618 E3.079
G1 X-7.665 Y0.487 E3.096
G1 X-7.672 Y0.281 E3.108
G1 X-7.512 Y0.121 E3.122
G1 X-7.498 Y-0.434 E3.155
G1 X-7.347 Y-0.445 E3.164
G1 X-7.389 Y-0.879 E3.190
G1 X-7.102 Y-1.061 E3.211
G1 X-7.082 Y-1.331 E3.227
G1 X-6.895 Y-1.549 E3.244
G1 X-6.801 Y-1.827 E3.262
G1 X-6.626 Y-1.992 E3.276
G1 X-6.421 Y-2.260 E3.297
G1 X-6.421 Y-2.732 E3.325
G1 X-6.374 Y-2.833 E3.332
G1 X-6.366 Y-3.227 E3.355
G1 X-6.452 Y-3.332 E3.363
G1 X-6.223 Y-3.498 E3.380
G1 X-5.769 Y-3.495 E3.408
G1 X-5.665 Y-3.349 E3.418
G1 X-5.341 Y-3.076 E3.444
G1 X-4.846 Y-2.866 E3.476
G1 X-4.662 Y-2.843 E3.487
G1 X-3.905 Y-2.825 E3.533
G1 X-3.818 Y-2.662 E3.544
G1 X-3.700 Y-2.513 E3.555
G1 X-3.350 Y-2.306 E3.579
G1 X-2.919 Y-2.143 E3.607
G1 X-2.628 Y-2.088 E3.625
G1 X-2.566 Y-2.024 E3.630
G1 X-2.399 Y-1.940 E3.641
G1 X-1.995 Y-1.910 E3.666
G1 X-1.318 Y-1.628 E3.710
G1 X-1.016 Y-1.549 E3.728
G1 X-0.705 Y-1.532 E3.747
G1 X-0.359 Y-1.642 E3.769
G1 X-0.192 Y-1.828 E3.784
G1 X0.073 Y-1.850 E3.800
G1 X0.175 Y-1.888 E3.806
G1 X0.620 Y-1.930 E3.833
G1 X0.620 Y-2.079 E3.842
G1 X0.871 Y-2.110 E3.857
G1 X0.799 Y-2.507 E3.882
G1 X0.901 Y-2.614 E3.890
G1 X1.052 Y-2.916 E3.911
G1 X1.352 Y-2.552 E3.939
G1 X1.539 Y-2.260 E3.960
G1 Z1.200 F150.000
G1 F100.002
G1 X2.159 Y-2.291 E3.997
G1 X2.156 Y-2.967 E4.038
G1 X2.239 Y-3.012 E4.043
G1 X2.269 Y-3.374 E4.065
G1 X2.555 Y-3.205 E4.085
G1 X2.568 Y-3.672 E4.113
G1 X2.801 Y-3.905 E4.133
G1 X2.886 Y-4.158 E4.149
G1 X2.867 Y-4.600 E4.175
G1 X3.043 Y-4.611 E4.186
G1 X3.368 Y-4.761 E4.207
G1 X3.615 Y-4.784 E4.222
G1 X3.924 Y-4.898 E4.242
G1 X3.923 Y-4.684 E4.255
G1 X4.497 Y-4.522 E4.291
G1 X4.636 Y-4.779 E4.308
G1 X4.815 Y-4.744 E4.319
G1 X4.875 Y-4.916 E4.330
G1 X5.170 Y-4.750 E4.350
G1 X5.550 Y-4.664 E4.374
G1 X5.953 Y-4.652 E4.398
G1 X5.992 Y-4.477 E4.409
G1 X5.992 Y-4.186 E4.426
G1 X6.101 Y-4.013 E4.438
G1 X6.366 Y-3.729 E4.462
G1 X6.410 Y-3.624 E4.469
G1 X6.646 Y-3.299 E4.493
G1 X6.854 Y-2.813 E4.524
G1 X7.061 Y-2.589 E4.543
G1 X7.391 Y-2.337 E4.568
G1 X7.492 Y-1.701 E4.606
G1 X7.624 Y-1.424 E4.625
G1 X7.730 Y-1.107 E4.645
G1 X7.759 Y-0.816 E4.662
G1 X7.732 Y-0.512 E4.681
G1 X7.740 Y-0.243 E4.697
G1 X7.710 Y0.263 E4.727
G1 X7.662 Y0.308 E4.731
G1 X7.368 Y0.749 E4.763
G1 X7.076 Y1.124 E4.791
G1 X7.000 Y1.428 E4.810
G1 X6.911 Y1.408 E4.816
G1 X6.833 Y1.579 E4.827
G1 X6.669 Y1.525 E4.837
G1 X6.560 Y1.987 E4.866
G1 X6.449 Y2.254 E4.883
G1 X6.196 Y2.761 E4.917
G1 X5.909 Y2.948 E4.938
G1 X5.818 Y3.064 E4.947
G1 X5.675 Y3.151 E4.957
G1 X5.523 Y3.287 E4.969
G1 X5.296 Y3.616 E4.993
G1 X5.246 Y3.849 E5.007
G1 X5.223 Y4.344 E5.037
G1 X5.082 Y4.492 E5.049
G1 X4.996 Y4.681 E5.062
G1 X4.941 Y5.222 E5.094
G1 X4.865 Y5.364 E5.104
G1 X4.362 Y5.318 E5.134
G1 X4.287 Y6.042 E5.178
G1 X4.211 Y6.237 E5.190
G1 X3.957 Y6.187 E5.206
G1 X3.898 Y5.679 E5.237
G1 X3.859 Y5.091 E5.272
G1 X3.672 Y4.623 E5.302
G1 X3.533 Y4.065 E5.337
G1 X2.790 Y4.050 E5.381
G1 X2.603 Y4.101 E5.393
G1 X2.428 Y4.218 E5.406
G1 X2.326 Y4.350 E5.416
G1 X2.296 Y4.424 E5.420
G1 X1.937 Y4.716 E5.448
G1 X1.575 Y4.873 E5.472
G1 X1.036 Y5.215 E5.510
G1 X0.849 Y5.282 E5.522
G1 X0.109 Y5.379 E5.567
G1 X0.693 Y6.058 E5.621
G1 X0.831 Y6.471 E5.647
G1 X0.561 Y6.496 E5.663
G1 X0.334 Y6.647 E5.679
G1 X0.059 Y6.657 E5.696
G1 X-0.198 Y6.779 E5.713
G1 X-0.344 Y6.587 E5.727
G1 X-0.542 Y6.469 E5.741
G1 X-1.205 Y6.394 E5.781
G1 X-0.965 Y5.847 E5.817
G1 X-1.498 Y5.896 E5.849
G1 X-1.419 Y5.624 E5.866
G1 X-1.458 Y5.271 E5.887
G1 X-1.762 Y5.161 E5.907
G1 X-2.234 Y5.141 E5.935
G1 X-2.449 Y5.189 E5.948
G1 X-2.622 Y5.286 E5.960
G1 X-2.757 Y5.458 E5.973
G1 X-2.875 Y5.695 E5.989
G1 X-3.149 Y5.570 E6.007
G1 X-3.159 Y5.220 E6.028
G1 X-3.366 Y5.244 E6.041
G1 X-3.375 Y5.014 E6.055
G1 X-3.715 Y5.027 E6.075
G1 X-3.735 Y4.462 E6.109
G1 X-4.056 Y4.462 E6.128
G1 X-4.056 Y3.623 E6.179
G1 X-4.605 Y4.060 E6.221
G1 X-4.623 Y3.753 E6.239
G1 X-4.671 Y3.569 E6.251
G1 X-4.765 Y3.364 E6.264
G1 X-5.046 Y3.016 E6.291
G1 X-5.401 Y2.774 E6.317
G1 X-5.779 Y2.683 E6.340
G1 X-6.037 Y2.656 E6.356
G1 X-6.220 Y2.461 E6.372
G1 X-6.387 Y2.363 E6.383
G1 X-6.476 Y2.338 E6.389
G1 X-6.741 Y2.156 E6.408
G1 X-6.952 Y2.110 E6.421
G1 X-7.093 Y2.110 E6.430
G1 X-7.200 Y2.064 E6.437
G1 X-7.357 Y1.930 E6.449
G1 X-7.618 Y1.655 E6.472
G1 X-7.767 Y1.201 E6.500
G1 X-7.882 Y1.197 E6.507
G1 X-7.907 Y0.618 E6.542
G1 X-7.665 Y0.487 E6.559
G1 X-7.672 Y0.281 E6.571
G1 X-7.512 Y0.120 E6.585
G1 X-7.498 Y-0.434 E6.618
G1 X-7.347 Y-0.445 E6.627
G1 X-7.389 Y-0.879 E6.653
G1 X-7.102 Y-1.061 E6.673
G1 X-7.082 Y-1.331 E6.690
G1 X-6.895 Y-1.549 E6.707
G1 X-6.801 Y-1.827 E6.724
G1 X-6.626 Y-1.992 E6.739
G1 X-6.421 Y-2.260 E6.759
G1 X-6.421 Y-2.732 E6.787
G1 X-6.374 Y-2.833 E6.794
G1 X-6.366 Y-3.227 E6.818
G1 X-6.452 Y-3.332 E6.826
G1 X-6.223 Y-3.498 E6.843
G1 X-5.769 Y-3.495 E6.870
G1 X-5.665 Y-3.349 E6.881
G1 X-5.341 Y-3.076 E6.906
G1 X-4.846 Y-2.866 E6.939
G1 X-4.662 Y-2.843 E6.950
G1 X-3.905 Y-2.825 E6.995
G1 X-3.818 Y-2.662 E7.006
G1 X-3.700 Y-2.513 E7.018
G1 X-3.350 Y-2.306 E7.042
G1 X-2.928 Y-2.146 E7.069
G1 X-2.628 Y-2.089 E7.087
G1 X-2.566 Y-2.024 E7.093
G1 X-2.399 Y-1.940 E7.104
G1 X-1.995 Y-1.910 E7.128
G1 X-1.318 Y-1.628 E7.172
G1 X-1.016 Y-1.549 E7.191
G1 X-0.705 Y-1.532 E7.210
G1 X-0.359 Y-1.642 E7.232
G1 X-0.192 Y-1.828 E7.247
G1 X0.073 Y-1.850 E7.263
G1 X0.175 Y-1.888 E7.269
G1 X0.620 Y-1.930 E7.296
G1 X0.620 Y-2.079 E7.305
G1 X0.871 Y-2.110 E7.320
G1 X0.799 Y-2.507 E7.344
G1 X0.901 Y-2.614 E7.353
G1 X1.052 Y-2.916 E7.373
G1 X1.352 Y-2.552 E7.402
G1 X1.539 Y-2.260 E7.422
G1 E8.922 F2400.00000
G92 E0
G1 Z1.350 F150.000
; Filament-specific end gcode 
;END gcode for filament

G1 X0 Y0 Z20 F500
M84       ;Motors off
M104 S0 ; set temperature
M140 S0 ; set bed temperature
; filament used = 3.2mm (0.1cm3)
; total filament cost = 0.0

; avoid_crossing_perimeters = 1
; bed_shape = -81x-81,81x-81,81x81,-81x81
; bed_temperature = 0
; before_layer_gcode = 
; between_objects_gcode = 
; bridge_acceleration = 0
; bridge_fan_speed = 100
; brim_connections_width = 0
; brim_width = 0
; complete_objects = 0
; cooling = 1
; default_acceleration = 0
; disable_fan_first_layers = 3
; duplicate_distance = 6
; end_filament_gcode = "; Filament-specific end gcode \n;END gcode for filament\n"
; end_gcode = G1 X0 Y0 Z20 F500\nM84       ;Motors off
; extruder_clearance_height = 20
; extruder_clearance_radius = 20
; extruder_offset = 0x0
; extrusion_axis = E
; extrusion_multiplier = 1.4
; fan_always_on = 0
; fan_below_layer_time = 60
; filament_colour = #FFFFFF
; filament_cost = 0
; filament_density = 0
; filament_diameter = 4.6
; filament_max_volumetric_speed = 0
; filament_notes = ""
; first_layer_acceleration = 0
; first_layer_bed_temperature = 0
; first_layer_extrusion_width = 0
; first_layer_speed = 1.6667
; first_layer_temperature = 0
; gcode_arcs = 0
; gcode_comments = 0
; gcode_flavor = reprap
; has_heatbed = 1
; infill_acceleration = 0
; infill_first = 0
; interior_brim_width = 0
; layer_gcode = 
; max_fan_speed = 100
; max_layer_height = 10
; max_print_speed = 80
; max_volumetric_speed = 0
; min_fan_speed = 35
; min_layer_height = 0.0001
; min_print_speed = 10
; min_skirt_length = 0
; notes = 
; nozzle_diameter = 0.61
; only_retract_when_crossing_perimeters = 1
; ooze_prevention = 0
; output_filename_format = [input_filename_base].gcode
; perimeter_acceleration = 0
; post_process = 
; pressure_advance = 0
; printer_notes = 
; resolution = 0
; retract_before_travel = 2
; retract_layer_change = 0
; retract_length = 0.75
; retract_length_toolchange = 10
; retract_lift = 0.15
; retract_lift_above = 0
; retract_lift_below = 0
; retract_restart_extra = 0
; retract_restart_extra_toolchange = 0
; retract_speed = 40
; skirt_distance = 6
; skirt_height = 1
; skirts = 0
; slowdown_below_layer_time = 5
; spiral_vase = 0
; standby_temperature_delta = -5
; start_filament_gcode = "; Filament gcode\n"
; start_gcode = T0\nG92 X0 Y0 Z0 E0  ;set coordinates to 0 \nG92 E0\n\nT0\nM302 P1
; temperature = 0
; threads = 8
; toolchange_gcode = 
; travel_speed = 2.5
; use_firmware_retraction = 0
; use_relative_e_distances = 0
; use_set_and_wait_bed = 0
; use_set_and_wait_extruder = 0
; use_volumetric_e = 0
; vibration_limit = 0
; wipe = 0
; z_offset = 0
; z_steps_per_mm = 0
; adaptive_slicing = 0
; adaptive_slicing_quality = 75%
; dont_support_bridges = 1
; extrusion_width = 0
; first_layer_height = 0.6
; infill_only_where_needed = 0
; interface_shells = 0
; layer_height = 0.6
; match_horizontal_surfaces = 0
; raft_layers = 0
; regions_overlap = 0
; seam_position = aligned
; sequential_print_priority = 0
; support_material = 0
; support_material_angle = 0
; support_material_buildplate_only = 0
; support_material_contact_distance = 0.2
; support_material_enforce_layers = 0
; support_material_extruder = 1
; support_material_extrusion_width = 0
; support_material_interface_extruder = 1
; support_material_interface_extrusion_width = 0
; support_material_interface_layers = 3
; support_material_interface_spacing = 0
; support_material_interface_speed = 100%
; support_material_max_layers = 0
; support_material_pattern = pillars
; support_material_spacing = 2.5
; support_material_speed = 60
; support_material_threshold = 60%
; xy_size_compensation = 0
; bottom_infill_pattern = rectilinear
; bottom_solid_layers = 0
; bridge_flow_ratio = 1
; bridge_speed = 2.5
; external_perimeter_extrusion_width = 0
; external_perimeter_speed = 1.6667
; external_perimeters_first = 0
; extra_perimeters = 1
; fill_angle = 45
; fill_density = 0%
; fill_gaps = 1
; fill_pattern = rectilinear
; gap_fill_speed = 2.5
; infill_every_layers = 10
; infill_extruder = 1
; infill_extrusion_width = 0
; infill_overlap = 15%
; infill_speed = 2.5
; overhangs = 1
; perimeter_extruder = 1
; perimeter_extrusion_width = 0
; perimeter_speed = 1.6667
; perimeters = 1
; small_perimeter_speed = 1.6667
; solid_infill_below_area = 5
; solid_infill_every_layers = 0
; solid_infill_extruder = 1
; solid_infill_extrusion_width = 0
; solid_infill_speed = 20
; thin_walls = 1
; top_infill_extrusion_width = 0
; top_infill_pattern = rectilinear
; top_solid_infill_speed = 15
; top_solid_layers = 0



