; generated by Slic3r 1.3.0 on 2022-05-03 at 13:03:39

; external perimeters extrusion width = 0.67mm (0.81mm^3/s)
; perimeters extrusion width = 0.64mm (0.77mm^3/s)
; infill extrusion width = 0.64mm (0.77mm^3/s)
; solid infill extrusion width = 0.64mm (6.14mm^3/s)
; top infill extrusion width = 0.64mm (4.61mm^3/s)

M107
T0
G92 X0 Y0 Z0 E0  ;set coordinates to 0 
G92 E0

T0
M302 P1
; Filament gcode

G21 ; set units to millimeters
G90 ; use absolute coordinates
M82 ; use absolute distances for extrusion
G92 E0
G1 Z0.600 F150.000
G92 E0
G1 Z0.750 F150.000
G1 X4.596 Y0.000 F150.000
G1 Z0.600 F150.000
G1 E0.500 F100
G1 F100
G1 X4.545 Y0.048 E0.504
G1 F100
G1 X4.444 Y0.143 E0.513
G1 F100
G1 X4.344 Y0.239 E0.521
G1 X1.732 Y1.517 E0.695
G1 X1.627 Y1.584 E0.703
G1 X1.587 Y1.725 E0.712
G1 X1.174 Y4.541 E0.882
G1 X1.142 Y4.607 E0.887
G1 F100
G1 X1.076 Y4.740 E0.896
G1 F150
G1 X1.010 Y4.873 E0.905
G1 X0.887 Y4.805 E0.913
G1 F100
G1 X0.763 Y4.736 E0.922
G1 F100
G1 X0.701 Y4.702 E0.926
G1 X-1.304 Y2.662 E1.097
G1 X-1.427 Y2.567 E1.107
G1 X-4.426 Y3.064 E1.289
G1 F100
G1 X-4.587 Y3.049 E1.299
G1 F150
G1 X-4.747 Y3.033 E1.308
G1 X-4.737 Y2.959 E1.313
G1 F150
G1 X-4.715 Y2.812 E1.322
G1 F100
G1 X-4.693 Y2.664 E1.331
G1 X-3.344 Y0.120 E1.504
G1 X-3.299 Y-0.000 E1.511
G1 X-3.344 Y-0.120 E1.519
G1 X-4.693 Y-2.664 E1.692
G1 X-4.704 Y-2.738 E1.696
G1 F100
G1 X-4.726 Y-2.886 E1.705
G1 F100
G1 X-4.747 Y-3.033 E1.714
G1 F100
G1 X-4.667 Y-3.041 E1.719
G1 F100
G1 X-4.506 Y-3.056 E1.729
G1 F100
G1 X-4.426 Y-3.064 E1.733
G1 X-1.427 Y-2.567 E1.916
G1 X-1.304 Y-2.662 E1.925
G1 X0.701 Y-4.702 E2.097
G1 F100
G1 X0.825 Y-4.771 E2.105
G1 F100
G1 X1.010 Y-4.874 E2.118
G1 X1.076 Y-4.740 E2.127
G1 F150
G1 X1.142 Y-4.607 E2.136
G1 F100
G1 X1.174 Y-4.541 E2.140
G1 X1.587 Y-1.725 E2.311
G1 X1.627 Y-1.584 E2.320
G1 X1.732 Y-1.517 E2.327
G1 X4.344 Y-0.239 E2.502
G1 X4.394 Y-0.191 E2.506
G1 F100
G1 X4.495 Y-0.096 E2.514
G1 F100
G1 X4.529 Y-0.063 E2.517
G1 Z1.200 F150.000
G1 X4.596 Y-0.000 F150.000
G1 F100
G1 X4.545 Y0.048 E2.521
G1 F100
G1 X4.444 Y0.143 E2.530
G1 F100
G1 X4.344 Y0.239 E2.538
G1 X1.732 Y1.517 E2.712
G1 X1.627 Y1.584 E2.720
G1 X1.587 Y1.725 E2.729
G1 X1.174 Y4.541 E2.899
G1 X1.142 Y4.607 E2.904
G1 F100
G1 X1.076 Y4.740 E2.913
G1 F100
G1 X1.010 Y4.873 E2.922
G1 X0.887 Y4.805 E2.930
G1 F100
G1 X0.763 Y4.736 E2.939
G1 F100
G1 X0.701 Y4.702 E2.943
G1 X-1.304 Y2.662 E3.115
G1 X-1.427 Y2.567 E3.124
G1 X-4.426 Y3.064 E3.306
G1 F100
G1 X-4.587 Y3.049 E3.316
G1 F100
G1 X-4.747 Y3.033 E3.326
G1 X-4.737 Y2.959 E3.330
G1 F100
G1 X-4.715 Y2.812 E3.339
G1 F100
G1 X-4.693 Y2.664 E3.348
G1 X-3.344 Y0.120 E3.521
G1 X-3.299 Y-0.000 E3.528
G1 X-3.344 Y-0.120 E3.536
G1 X-4.693 Y-2.664 E3.709
G1 X-4.704 Y-2.738 E3.713
G1 F100
G1 X-4.726 Y-2.886 E3.722
G1 F100
G1 X-4.747 Y-3.033 E3.731
G1 F100
G1 X-4.667 Y-3.041 E3.736
G1 F100
G1 X-4.506 Y-3.056 E3.746
G1 F100
G1 X-4.426 Y-3.064 E3.751
G1 X-1.427 Y-2.567 E3.933
G1 X-1.304 Y-2.662 E3.942
G1 X0.701 Y-4.702 E4.114
G1 F100
G1 X0.825 Y-4.771 E4.122
G1 F100
G1 X1.010 Y-4.874 E4.135
G1 X1.073 Y-4.776 E4.142
G1 F150
G1 X1.136 Y-4.679 E4.149
G1 F100
G1 X1.174 Y-4.541 E4.158
G1 X1.587 Y-1.725 E4.328
G1 X1.627 Y-1.584 E4.337
G1 X1.732 Y-1.517 E4.345
G1 X4.344 Y-0.239 E4.519
G1 X4.394 Y-0.191 E4.523
G1 F100
G1 X4.495 Y-0.096 E4.532
G1 F100
G1 X4.529 Y-0.063 E4.535
G1 E6.035 F2400.00000
G92 E0

; Filament-specific end gcode 
;END gcode for filament

G1 F300 X4.529 Y-0.063 Z20
M84       ;Motors off
M104 S0 ; set temperature
M140 S0 ; set bed temperature
; filament used = 1.5mm (0.0cm3)
; total filament cost = 0.0

; avoid_crossing_perimeters = 1
; bed_shape = -81x-81,81x-81,81x81,-81x81
; bed_temperature = 0
; before_layer_gcode = 
; between_objects_gcode = 
; bridge_acceleration = 0
; bridge_fan_speed = 100
; brim_connections_width = 0
; brim_width = 0
; complete_objects = 0
; cooling = 1
; default_acceleration = 0
; disable_fan_first_layers = 3
; duplicate_distance = 6
; end_filament_gcode = "; Filament-specific end gcode \n;END gcode for filament\n"
; end_gcode = G1 Z10 F500\nM84       ;Motors off
; extruder_clearance_height = 20
; extruder_clearance_radius = 20
; extruder_offset = 0x0
; extrusion_axis = E
; extrusion_multiplier = 1.38
; fan_always_on = 0
; fan_below_layer_time = 60
; filament_colour = #FFFFFF
; filament_cost = 0
; filament_density = 0
; filament_diameter = 4.6
; filament_max_volumetric_speed = 0
; filament_notes = ""
; first_layer_acceleration = 0
; first_layer_bed_temperature = 0
; first_layer_extrusion_width = 200%
; first_layer_speed = 2.5
; first_layer_temperature = 0
; gcode_arcs = 0
; gcode_comments = 0
; gcode_flavor = reprap
; has_heatbed = 1
; infill_acceleration = 0
; infill_first = 0
; interior_brim_width = 0
; layer_gcode = 
; max_fan_speed = 100
; max_layer_height = 10
; max_print_speed = 80
; max_volumetric_speed = 0
; min_fan_speed = 35
; min_layer_height = 0.0001
; min_print_speed = 10
; min_skirt_length = 0
; notes = 
; nozzle_diameter = 0.61
; only_retract_when_crossing_perimeters = 1
; ooze_prevention = 0
; output_filename_format = [input_filename_base].gcode
; perimeter_acceleration = 0
; post_process = 
; pressure_advance = 0
; printer_notes = 
; resolution = 0
; retract_before_travel = 2
; retract_layer_change = 0
; retract_length = 0.75
; retract_length_toolchange = 10
; retract_lift = 0.15
; retract_lift_above = 0
; retract_lift_below = 0
; retract_restart_extra = 0
; retract_restart_extra_toolchange = 0
; retract_speed = 40
; skirt_distance = 6
; skirt_height = 1
; skirts = 0
; slowdown_below_layer_time = 5
; spiral_vase = 0
; standby_temperature_delta = -5
; start_filament_gcode = "; Filament gcode\n"
; start_gcode = T0\nG92 X0 Y0 Z0 E0  ;set coordinates to 0 \nG92 E0\n\nT0\nM302 P1
; temperature = 0
; threads = 8
; toolchange_gcode = 
; travel_speed = 2.5
; use_firmware_retraction = 0
; use_relative_e_distances = 0
; use_set_and_wait_bed = 0
; use_set_and_wait_extruder = 0
; use_volumetric_e = 0
; vibration_limit = 0
; wipe = 0
; z_offset = 0
; z_steps_per_mm = 0
; adaptive_slicing = 0
; adaptive_slicing_quality = 75%
; dont_support_bridges = 1
; extrusion_width = 0
; first_layer_height = 0.6
; infill_only_where_needed = 0
; interface_shells = 0
; layer_height = 0.6
; match_horizontal_surfaces = 0
; raft_layers = 0
; regions_overlap = 0
; seam_position = aligned
; sequential_print_priority = 0
; support_material = 0
; support_material_angle = 0
; support_material_buildplate_only = 0
; support_material_contact_distance = 0.2
; support_material_enforce_layers = 0
; support_material_extruder = 1
; support_material_extrusion_width = 0
; support_material_interface_extruder = 1
; support_material_interface_extrusion_width = 0
; support_material_interface_layers = 3
; support_material_interface_spacing = 0
; support_material_interface_speed = 100%
; support_material_max_layers = 0
; support_material_pattern = pillars
; support_material_spacing = 2.5
; support_material_speed = 60
; support_material_threshold = 60%
; xy_size_compensation = 0
; bottom_infill_pattern = rectilinear
; bottom_solid_layers = 0
; bridge_flow_ratio = 1
; bridge_speed = 2.5
; external_perimeter_extrusion_width = 0
; external_perimeter_speed = 2.5
; external_perimeters_first = 0
; extra_perimeters = 1
; fill_angle = 45
; fill_density = 60%
; fill_gaps = 1
; fill_pattern = rectilinear
; gap_fill_speed = 2.5
; infill_every_layers = 10
; infill_extruder = 1
; infill_extrusion_width = 0
; infill_overlap = 15%
; infill_speed = 2.5
; overhangs = 1
; perimeter_extruder = 1
; perimeter_extrusion_width = 0
; perimeter_speed = 2.5
; perimeters = 1
; small_perimeter_speed = 2.5
; solid_infill_below_area = 5
; solid_infill_every_layers = 0
; solid_infill_extruder = 1
; solid_infill_extrusion_width = 0
; solid_infill_speed = 20
; thin_walls = 1
; top_infill_extrusion_width = 0
; top_infill_pattern = rectilinear
; top_solid_infill_speed = 15
; top_solid_layers = 0




